packages/icons/src/SVG/commentary.svg

<svg width="12" height="12" viewBox="0 0 12 12" >
<path d="M9 2H3V3H9V2Z" />
<path d="M9 4H3V5H9V4Z" />
<path d="M3 6H7V7H3V6Z" />
<path fill-rule="evenodd" clip-rule="evenodd" d="M2 0C0.89543 0 0 0.895431 0 2V7C0 8.10457 0.895431 9 2 9V12L5.4433 9H10C11.1046 9 12 8.10457 12 7V2C12 0.895431 11.1046 0 10 0H2ZM1 2C1 1.44772 1.44772 1 2 1H10C10.5523 1 11 1.44772 11 2V7C11 7.55228 10.5523 8 10 8H5.0567L3 9.73945V8H2C1.44772 8 1 7.55228 1 7V2Z" />
</svg>

<!-- Generated by IcoMoon.io -->
<svg version="1.1" xmlns="http://www.w3.org/2000/svg" width="12" height="12" viewBox="0 0 12 12">
<title>commentary</title>
<path d="M9 2h-6v1h6v-1z"></path>
<path d="M9 4h-6v1h6v-1z"></path>
<path d="M3 6h4v1h-4v-1z"></path>
<path d="M2 0c-1.105 0-2 0.895-2 2v5c0 1.105 0.895 2 2 2v3l3.443-3h4.557c1.105 0 2-0.895 2-2v-5c0-1.105-0.895-2-2-2h-8zM1 2c0-0.552 0.448-1 1-1h8c0.552 0 1 0.448 1 1v5c0 0.552-0.448 1-1 1h-4.943l-2.057 1.739v-1.739h-1c-0.552 0-1-0.448-1-1v-5z"></path>
</svg>
